!!!!SEGMENT: pl-gd--ms-4006--002-001_marenzio-luca--missa-super-iniquos-odio-habui-kyrie-eleison.krn
!!!cenid: 16xx:1742
!!!COM: Marenzio, Luca
!!!COM-rismid: pe30003955
!!!CDT: ~1553-1599/08/22
!!!CNT: Italian
!!!OPR: Missa super Iniquos odio habui
!!!OTL: Kyrie eleison
!!!OMV: 001
!!!PDT:
!!!AGN:
!!!SMS-siglum: PL-GD
!!!SMS-shelfmark: Ms 4006
!!!SMS-shelfwork: 002-001 M
!!!SMS-variant:
!!!SMS-altvar:
!!!NIFC-rismid: 305000511
!!!URL-scan: https://repozytorium.nifc.pl/islandora/object/pl-gd%3A71737/datastream/PDF/view#page=77
!!!ONB-nifc: UWAGA: msza z nr 48. 6 ksiąg głosowych. Dla V6 i V7 -puste pięciolinie. Części 1. Kÿrie eleison, 2. Gloria/Et in terra pax. Skany: Bassus: 76r-v (skan 0077-0078), Tenor: 78r-v (skan 0228-0229), Quintavox: 78v-79r (skan 0381), Octavavox 74r (skan 0525), Altus: 76v (skan 0672), Discantus: 78r-v (skan 0824-0825)
!!!AIN: 1 alto 2 bass 2 soprn 1 tenor 2 vox
!!!key: F
**kern	**text	**kern	**text	**kern	**text	**kern	**text	**kern	**text	**kern	**text	**kern	**kern
*part8	*part8	*part7	*part7	*part6	*part6	*part5	*part5	*part4	*part4	*part3	*part3	*part2	*part1
*staff8	*staff8	*staff7	*staff7	*staff6	*staff6	*staff5	*staff5	*staff4	*staff4	*staff3	*staff3	*staff2	*staff1
*I"Basis 2di Chori.	*	*I"Primi Chori Basis	*	*I"Tenor 2di Chori	*	*I"Altus 1. Chori.	*	*I"Secundi Chori Cantus	*	*I"Cantus 1 Chori	*	*I"[Voce]	*I"[Voce]
*I'Coro B 2	*	*I'Coro B 1	*	*I'Coro T 2	*	*I'Coro A 1	*	*I'Coro S 2	*	*I'Coro S 1	*	*I'V 7	*I'V 6
*ICvox	*	*ICvox	*	*ICvox	*	*ICvox	*	*ICvox	*	*ICvox	*	*ICvox	*ICvox
*Ibass	*	*Ibass	*	*Itenor	*	*Ialto	*	*Isoprn	*	*Isoprn	*	*Ivox	*Ivox
*clefF4	*	*clefF4	*	*clefC4	*	*clefC3	*	*clefC1	*	*clefC1	*	*clefG2	*clefG2
*k[b-]	*	*k[b-]	*	*k[b-]	*	*k[b-]	*	*k[b-]	*	*k[b-]	*	*k[b-]	*k[b-]
*F:	*	*F:	*	*F:	*	*F:	*	*F:	*	*F:	*	*F:	*F:
*M2/1	*	*M2/1	*	*M2/1	*	*M2/1	*	*M2/1	*	*M2/1	*	*M2/1	*M2/1
*met(C|)	*	*met(C|)	*	*met(C|)	*	*met(C|)	*	*met(C|)	*	*met(C|)	*	*met(C|)	*met(C|)
=1-	=1-	=1-	=1-	=1-	=1-	=1-	=1-	=1-	=1-	=1-	=1-	=1-	=1-
!	!	!	!	!	!	!LO:TX:a:i:t=Miſsa, super Iniquos odio habui. 8. Vocu. Luc. Maretis.\nAltus. 1. Chori.:color=red	!	!LO:TX:a:i:t=Miſsa, super. Iniquos odio habui Luc. Mare. ab 8. Voc&colon;\nsecundi Chori Cantus:color=red	!	!	!	!	!
!	!	!LO:TX:a:i:t=Miſsa, octonis vocibus auctore\nLuca Marenztio, super iniq.uos.\nPrimi Chori Baſis:color=red	!	!	!	!	!	!	!	!	!	!	!
!	!	!	!	!	!	!	!	!	!	!LO:TX:t=P:problem: czerwona notatka umiejscowiona jest na marginesie po prawej	!	!	!
!	!	!	!	!	!	!	!	!	!	!LO:TX:a:i:t=Cantus. 1\nChori:color=red	!	!	!
!	!	!	!	!LO:TX:a:i:t=Tenor,\n2diBasi.:color=red	!	!	!	!	!	!	!	!	!
!LO:TX:a:i:t=Miſsa octonis vocibus Lucæ Marentij. super Iniquos. Baſsis 2di Chori.:color=red	!	!	!	!LO:TX:t=P:problem: czerwona notatka umiejscowiona jest na marginesie po prawej	!	!	!	!	!	!	!	!	!
00r	.	00r	.	00r	.	00r	.	00r	.	1r	.	0ryy	0ryy
*	*	*	*	*	*	*	*	*	*	*	*color:red	*	*
.	.	.	.	.	.	.	.	.	.	0f	Kÿ-	.	.
=2-	=2-	=2-	=2-	=2-	=2-	=2-	=2-	=2-	=2-	=2-	=2-	=2-	=2-
.	.	.	.	.	.	.	.	.	.	.	.	0ryy	0ryy
.	.	.	.	.	.	.	.	.	.	1g	-ri-	.	.
=3-	=3-	=3-	=3-	=3-	=3-	=3-	=3-	=3-	=3-	=3-	=3-	=3-	=3-
00r	.	0r	.	00r	.	00r	.	00r	.	2a\	-e	0ryy	0ryy
*	*	*	*	*	*	*	*	*	*	*	*color:auto	*	*
.	.	.	.	.	.	.	.	.	.	4f/	e-	.	.
.	.	.	.	.	.	.	.	.	.	4g/	.	.	.
.	.	.	.	.	.	.	.	.	.	4a\	.	.	.
.	.	.	.	.	.	.	.	.	.	4b-\	.	.	.
.	.	.	.	.	.	.	.	.	.	1cc\	.	.	.
=4-	=4-	=4-	=4-	=4-	=4-	=4-	=4-	=4-	=4-	=4-	=4-	=4-	=4-
.	.	1r	.	.	.	.	.	.	.	.	.	0ryy	0ryy
!	!	!	!	!	!	!	!	!	!	!LO:N:acc=#	!	!	!
.	.	.	.	.	.	.	.	.	.	2bn\	.	.	.
*	*	*	*color:red	*	*	*	*	*	*	*	*	*	*
.	.	0F	Kÿ-	.	.	.	.	.	.	4cc\	-lei-	.	.
.	.	.	.	.	.	.	.	.	.	4b\	.	.	.
.	.	.	.	.	.	.	.	.	.	4a\	.	.	.
.	.	.	.	.	.	.	.	.	.	4g/	.	.	.
=5-	=5-	=5-	=5-	=5-	=5-	=5-	=5-	=5-	=5-	=5-	=5-	=5-	=5-
00r	.	.	.	00r	.	00r	.	00r	.	0f	-son,	0ryy	0ryy
.	.	1D	-ri-	.	.	.	.	.	.	.	.	.	.
=6-	=6-	=6-	=6-	=6-	=6-	=6-	=6-	=6-	=6-	=6-	=6-	=6-	=6-
.	.	1.C	-e	.	.	.	.	.	.	2r	.	0ryy	0ryy
.	.	.	.	.	.	.	.	.	.	1dd	e-	.	.
*	*	*	*color:auto	*	*	*	*	*	*	*	*	*	*
.	.	2GG/	e-	.	.	.	.	.	.	2cc\	-lei-	.	.
=7-	=7-	=7-	=7-	=7-	=7-	=7-	=7-	=7-	=7-	=7-	=7-	=7-	=7-
*	*	*	*	*	*	*	*	*	*	*lig	*	*	*
0r	.	2.AA/	-lei-	0r	.	0r	.	0r	.	1a	-son	0ryy	0ryy
.	.	4BB-/	.	.	.	.	.	.	.	.	.	.	.
.	.	1C	.	.	.	.	.	.	.	1g	.	.	.
*	*color:red	*	*	*	*color:red	*	*color:red	*	*color:red	*Xlig	*	*	*
=8-	=8-	=8-	=8-	=8-	=8-	=8-	=8-	=8-	=8-	=8-	=8-	=8-	=8-
0F	Kÿ-	0FF	-son,	2r	.	0c	Kÿ-	0f	Kÿ-	0a	.	0ryy	0ryy
.	.	.	.	4F/	Kÿ-	.	.	.	.	.	.	.	.
.	.	.	.	4G/	.	.	.	.	.	.	.	.	.
.	.	.	.	4A/	.	.	.	.	.	.	.	.	.
.	.	.	.	4B-\	.	.	.	.	.	.	.	.	.
.	.	.	.	1c\	.	.	.	.	.	.	.	.	.
=9-	=9-	=9-	=9-	=9-	=9-	=9-	=9-	=9-	=9-	=9-	=9-	=9-	=9-
0D	-ri-	00r	.	.	.	0d	-ri-	0f	-ri-	00r	.	0ryy	0ryy
!	!	!	!	!LO:N:acc=#	!	!	!	!	!	!	!	!	!
.	.	.	.	4Bn\	.	.	.	.	.	.	.	.	.
.	.	.	.	4A/	.	.	.	.	.	.	.	.	.
.	.	.	.	2B\	-ri-	.	.	.	.	.	.	.	.
!	!	!	!	!LO:N:acc=#	!	!	!	!	!	!	!	!	!
.	.	.	.	2Bn\	-e	.	.	.	.	.	.	.	.
*	*	*	*	*	*color:auto	*	*	*	*color:auto	*	*	*	*
=10-	=10-	=10-	=10-	=10-	=10-	=10-	=10-	=10-	=10-	=10-	=10-	=10-	=10-
1C	-e	.	.	2c\	e-	2G/	-e	1e	-e	.	.	0ryy	0ryy
*	*	*	*	*	*	*	*color:auto	*	*	*	*	*	*
.	.	.	.	1c	-lei-	2g\	e-	.	.	.	.	.	.
*	*color:auto	*	*	*	*	*	*	*	*	*	*ij	*	*
2F\	e-	.	.	.	.	4.f\	-lei-	2a\	e-	.	.	.	.
.	.	.	.	.	.	8e\	.	.	.	.	.	.	.
!	!	!	!	!LO:N:acc=#	!	!	!	!	!	!	!	!	!
2G\	-lei-	.	.	2Bn\	-son,	2d\	.	2g\	-lei-	.	.	.	.
=11-	=11-	=11-	=11-	=11-	=11-	=11-	=11-	=11-	=11-	=11-	=11-	=11-	=11-
2C/	-son,	4r	.	2c\	.	2e\	-son,	2g\	-son,	4r	.	0ryy	0ryy
.	.	4C/	e-	.	.	.	.	.	.	4g/	e-	.	.
2r	.	2D/	-lei-	2r	.	2r	.	2r	.	2f#X/	-lei-	.	.
4r	.	2GG/	-son	4r	.	4r	.	4r	.	2g/	-son	.	.
4G\	e-	.	.	4d\	e-	4g\	e-	4b-\	e-	.	.	.	.
2A\	-lei-	2r	.	2c#X\	-lei-	2e\	-lei-	2a\	-lei-	2r	.	.	.
*	*	*	*	*	*	*	*	*	*	*	*Xij	*	*
=12-	=12-	=12-	=12-	=12-	=12-	=12-	=12-	=12-	=12-	=12-	=12-	=12-	=12-
2D/	-son,	4r	.	2d\	-son,	2f\	-son	2a\	-son,	4r	.	0ryy	0ryy
.	.	2D/	Kÿ-	.	.	.	.	.	.	2fny/	Kÿ-	.	.
2r	.	.	.	2r	.	2r	.	2r	.	.	.	.	.
.	.	4G\	-ri-	.	.	.	.	.	.	4g/	-ri-	.	.
*	*	*	*	*	*	*	*	*	*	*custos:a	*	*	*
!	!	!	!	!	!	!	!	!	!	!LO:LB:g=original	!	!	!
4r	.	2F\	-e	4r	.	4r	.	4r	.	2a\	-e	.	.
*	*ij	*	*	*	*ij	*	*ij	*	*ij	*	*	*	*
4F\	e-	.	.	4e\	e-	4c/	e-	4a\	e-	.	.	.	.
2D/	-lei-	2r	.	2F/	-lei-	2d\	-lei-	2b-\	-lei-	2r	.	.	.
=13-	=13-	=13-	=13-	=13-	=13-	=13-	=13-	=13-	=13-	=13-	=13-	=13-	=13-
2C/	-son	4r	.	2G/	-son	2e\	-son	2cc\	-son	4r	.	0ryy	0ryy
.	.	4C/	e-	.	.	.	.	.	.	4g/	e-	.	.
*	*Xij	*	*	*	*Xij	*	*Xij	*	*Xij	*	*	*	*
2r	.	2D/	-lei-	2r	.	2r	.	2r	.	2f#X/	-lei-	.	.
*	*	*	*	*custos:G	*	*	*	*	*	*	*	*	*
!	!	!	!	!LO:LB:g=original	!	!	!	!	!	!	!	!	!
2r	.	2GG,</	-son	2r	.	2r	.	2r	.	2g/	-son,	.	.
!	!	!	!	!	!	!	!	!	!	!LO:N:acc=#	!	!	!
1GG/	Kÿ-	1G\	Kÿ-	1G/	Kÿ-	1d\	Kÿ-	1g\	Kÿ-	1bn\	Kÿ-	.	.
=14-	=14-	=14-	=14-	=14-	=14-	=14-	=14-	=14-	=14-	=14-	=14-	=14-	=14-
.	.	.	.	.	.	.	.	.	.	.	.	0ryy	0ryy
!	!	!	!	!	!	!	!	!	!	!LO:N:acc=#	!	!	!
2GG/	-ri-	2G\	-ri-	2G/	-ri-	2d\	-ri-	2g\	-ri-	2bn\	-ri-	.	.
*	*	*custos:C	*	*	*	*	*	*	*	*	*	*	*
!	!	!LO:PB:g=original	!	!	!	!	!	!	!	!	!	!	!
0C	-e	0C	-e	0G	-e	1.c	-e	0g	-e	0cc	-e	.	.
=15-	=15-	=15-	=15-	=15-	=15-	=15-	=15-	=15-	=15-	=15-	=15-	=15-	=15-
.	.	.	.	.	.	.	e-	.	.	.	.	0ryy	0ryy
.	.	.	.	.	.	2e\	-lei-	.	.	.	.	.	.
*	*	*	*	*	*	*custos:f	*	*	*	*	*	*	*
!	!	!	!	!	!	!LO:LB:g=original	!	!	!	!	!	!	!
1FF	e-	1F	lei-	1F	e-	4f\	.	1a	e-	1cc	e-	.	.
.	.	.	.	.	.	8e\L	.	.	.	.	.	.	.
.	.	.	.	.	.	8d\J	.	.	.	.	.	.	.
.	.	.	.	.	.	1.c\	-son,	.	.	.	.	.	.
*	*	*	*	*	*	*	*	*custos:g	*	*	*	*	*
!	!	!	!	!	!	!	!	!LO:LB:g=original	!	!	!	!	!
=16-	=16-	=16-	=16-	=16-	=16-	=16-	=16-	=16-	=16-	=16-	=16-	=16-	=16-
1C	-lei-	1C	.	1G	-lei-	.	.	1g	-lei-	1cc	-lei-	0ryy	0ryy
1F	-son	1FF	-son,	1A	-son	1c	e-	2.f/	-son,	1cc	-son	.	.
.	.	.	.	.	.	.	.	4g\	.	.	.	.	.
=17-	=17-	=17-	=17-	=17-	=17-	=17-	=17-	=17-	=17-	=17-	=17-	=17-	=17-
0FF	e-	0F	e-	2.F/	.	0c	-lei-	2a,\	.	0cc	e-	0ryy	0ryy
.	.	.	.	.	.	.	.	2.cc\	e-	.	.	.	.
.	.	.	.	4G/	.	.	.	.	.	.	.	.	.
.	.	.	.	2A,</	.	.	.	.	.	.	.	.	.
.	.	.	.	.	.	.	.	4b-\	-lei-	.	.	.	.
.	.	.	.	2F/	e-	.	.	2a\	.	.	.	.	.
=18-	=18-	=18-	=18-	=18-	=18-	=18-	=18-	=18-	=18-	=18-	=18-	=18-	=18-
0C	-lei-	0C	-lei-	0G	-lei-	0c	-son.	0g	.	0cc	-lei-	0ryy	0ryy
=19-	=19-	=19-	=19-	=19-	=19-	=19-	=19-	=19-	=19-	=19-	=19-	=19-	=19-
00F;;	-son.	00FF;	-son.	00F;	-son.	00c/	.	00a;	-son	00cc	-son.	0ryy	0ryy
=20-	=20-	=20-	=20-	=20-	=20-	=20-	=20-	=20-	=20-	=20-	=20-	=20-	=20-
.	.	.	.	.	.	.	.	.	.	.	.	0ryy	0ryy
!LO:LB:g=original	!	!	!	!LO:LB:g=original	!	!	!	!	!	!LO:PB:g=original	!	!	!
=21-	=21-	=21-	=21-	=21-	=21-	=21-	=21-	=21-	=21-	=21-	=21-	=21-	=21-
*clefF4	*	*clefF4	*	*clefC4	*	*clefC3	*	*clefC1	*	*clefC1	*	*yyclefG2	*yyclefG2
*k[b-]	*	*k[b-]	*	*k[b-]	*	*k[b-]	*	*k[b-]	*	*k[b-]	*	*yyk[b-]	*yyk[b-]
*M2/1	*	*M2/1	*	*M2/1	*	*M2/1	*	*M2/1	*	*M2/1	*	*yyM2/1	*yyM2/1
*met(C|)	*color:red	*met(C|)	*color:red	*met(C|)	*color:red	*met(C|)	*color:red	*met(C|)	*color:red	*met(C|)	*color:red	*yymet(C|)	*yymet(C|)
00r	.	0r	.	0r	.	00r	.	00r	.	2r	.	0ryy	0ryy
.	.	.	.	.	.	.	.	.	.	4f/	CHRI-	.	.
.	.	.	.	.	.	.	.	.	.	4g/	.	.	.
.	.	.	.	.	.	.	.	.	.	4a\	.	.	.
.	.	.	.	.	.	.	.	.	.	4b-\	.	.	.
.	.	.	.	.	.	.	.	.	.	1cc\	.	.	.
=22-	=22-	=22-	=22-	=22-	=22-	=22-	=22-	=22-	=22-	=22-	=22-	=22-	=22-
.	.	1r	.	0r	.	.	.	.	.	.	.	0ryy	0ryy
!	!	!	!	!	!	!	!	!	!	!LO:N:acc=#	!	!	!
.	.	.	.	.	.	.	.	.	.	2bn\	-STE	.	.
*	*	*	*	*	*	*	*	*	*	*	*color:auto	*	*
.	.	0F	CHRIS-	.	.	.	.	.	.	1cc	e-	.	.
=23-	=23-	=23-	=23-	=23-	=23-	=23-	=23-	=23-	=23-	=23-	=23-	=23-	=23-
0r	.	.	.	0r	.	0r	.	0r	.	2.a\	.	0ryy	0ryy
.	.	.	.	.	.	.	.	.	.	4g/	.	.	.
.	.	1D	-TE	.	.	.	.	.	.	4f/	.	.	.
.	.	.	.	.	.	.	.	.	.	4e/	.	.	.
.	.	.	.	.	.	.	.	.	.	2.f/	.	.	.
=24-	=24-	=24-	=24-	=24-	=24-	=24-	=24-	=24-	=24-	=24-	=24-	=24-	=24-
1r	.	2C/	e-	1r	.	1r	.	1r	.	.	.	0ryy	0ryy
.	.	.	.	.	.	.	.	.	.	8e/L	.	.	.
.	.	.	.	.	.	.	.	.	.	8d/J	.	.	.
.	.	2C/	-lei-	.	.	.	.	.	.	2e/	-lei-	.	.
0F	Chriſ-	0FF	-son,	4F/	CHRI-	0f	Chriſ-	2r	.	0f	-son	.	.
.	.	.	.	4G/	.	.	.	.	.	.	.	.	.
.	.	.	.	4A/	.	.	.	4f/	Chriſ-	.	.	.	.
.	.	.	.	4B-\	.	.	.	4g/	.	.	.	.	.
=25-	=25-	=25-	=25-	=25-	=25-	=25-	=25-	=25-	=25-	=25-	=25-	=25-	=25-
.	.	.	.	2c\	.	.	.	4a\	-te	.	.	0ryy	0ryy
.	.	.	.	.	.	.	.	4b-\	.	.	.	.	.
.	.	.	.	2A/	-ste,	.	.	1cc	.	.	.	.	.
1G	-te	1r	.	2r	.	1d	-te	.	.	1r	.	.	.
*	*	*	*color:auto	*	*color:auto	*	*color:auto	*	*color:auto	*	*	*	*
!	!	!	!	!	!	!	!	!LO:N:acc=#	!	!	!	!	!
.	.	.	.	2G/	Chris-	.	.	2bn\	e-	.	.	.	.
*	*color:auto	*	*	*	*	*	*	*	*	*	*ij	*	*
=26-	=26-	=26-	=26-	=26-	=26-	=26-	=26-	=26-	=26-	=26-	=26-	=26-	=26-
1A	e-	0r	.	2c\	-te	0c	e-	1cc	-lei-	0r	.	0ryy	0ryy
.	.	.	.	4F/	e-	.	.	.	.	.	.	.	.
.	.	.	.	4G/	.	.	.	.	.	.	.	.	.
2.F\	-lei-	.	.	4A/	.	.	.	2.a\	.	.	.	.	.
.	.	.	.	4B-\	.	.	.	.	.	.	.	.	.
.	.	.	.	1c\	.	.	.	.	.	.	.	.	.
4E\	-son,	.	.	.	.	.	.	4g\	.	.	.	.	.
=27-	=27-	=27-	=27-	=27-	=27-	=27-	=27-	=27-	=27-	=27-	=27-	=27-	=27-
1D	.	1r	.	.	.	1d	-lei-	1f	.	1r	.	0ryy	0ryy
!	!	!	!	!LO:N:acc=#	!	!	!	!	!	!	!	!	!
.	.	.	.	2Bn\	-lei-	.	.	.	.	.	.	.	.
1C	.	2r	.	1c	-son	1G	-son,	1e	-son,	2r	.	.	.
.	.	2C/	Chriſ-	.	.	.	.	.	.	2g/	Chris-	.	.
*	*	*	*	*	*	*	*	*custos:g	*	*	*	*	*
!	!	!	!	!	!	!	!	!LO:LB:g=original	!	!	!	!	!
=28-	=28-	=28-	=28-	=28-	=28-	=28-	=28-	=28-	=28-	=28-	=28-	=28-	=28-
2r	.	4F\	-te	2r	.	2r	.	2r	.	4a\	-te	0ryy	0ryy
.	.	4A\	e-	.	.	.	.	.	.	4e/	e-	.	.
4r	.	2G\	-lei-	4r	.	4r	.	4r	.	2g/	-lei-	.	.
*	*ij	*	*	*	*ij	*	*ij	*	*ij	*	*	*	*
4GG/	Chris-	.	.	4G/	Chris-	4d\	Chris-	4g/	Chris-	.	.	.	.
*	*	*custos:C	*	*	*	*	*	*	*	*	*	*	*
!	!	!LO:LB:g=original	!	!	!	!	!	!	!	!	!	!	!
4C/	-te	2C/	-son,	4G/	-te	4e-X\	-te	4g/	-te	2g/	-son	.	.
4E-X\	e-	.	.	4G/	e-	4c/	e-	4g/	e-	.	.	.	.
2D/	-lei-	4r	.	2A/	-lei-	2d\	-lei-	2f#X/	-lei-	4r	.	.	.
*	*	*	*ij	*	*	*	*	*	*	*	*Xij	*	*
.	.	4D/	Chris-	.	.	.	.	.	.	4dd\	Chri-	.	.
*	*	*	*	*	*	*	*	*	*	*custos:b-	*	*	*
!	!	!	!	!	!	!	!	!	!	!LO:LB:g=original	!	!	!
=29-	=29-	=29-	=29-	=29-	=29-	=29-	=29-	=29-	=29-	=29-	=29-	=29-	=29-
2GG/	-son	4G\	-te	2G/	-son	2d\	-son	2g/	-son	4b-\	-ſte	0ryy	0ryy
.	.	4B-\	e-	.	.	.	.	.	.	4g/	e-	.	.
*	*	*	*	*	*	*custos:A	*Xij	*	*	*	*	*	*
!	!	!	!	!	!	!LO:LB:g=original	!	!	!	!	!	!	!
4r	.	2A\	-lei-	2r	.	4r	.	4r	.	2a\	-lei-	.	.
*	*Xij	*	*	*	*Xij	*	*	*	*Xij	*	*	*	*
4AA/	Chriſ-	.	.	.	.	4A/	Chriſ-	4e/	Chriſ-	.	.	.	.
4D/	-te	2D/	-son	2d\	e-	4A/	-te	4fny/	-te	2f/	-son,	.	.
4BB-/	e-	.	.	.	.	4f\	e-	4b-y\	e-	.	.	.	.
2F\	-lei-	4r	.	2c\	-lei-	2f\	-lei-	2a\	-lei-	4r	.	.	.
*	*	*	*Xij	*	*	*	*	*	*	*	*ij	*	*
.	.	4FF/	chriſ-	.	.	.	.	.	.	4cc\	Chris-	.	.
=30-	=30-	=30-	=30-	=30-	=30-	=30-	=30-	=30-	=30-	=30-	=30-	=30-	=30-
2BB-/	-son,	4BB-/	-te	2B-y\	-son	2d\	-son,	2b-\	-son,	4dd\	-te	0ryy	0ryy
.	.	4GG/	e-	.	.	.	.	.	.	4b-\	e-	.	.
2r	.	2D/	-lei-	2r	.	2r	.	2r	.	2a\	-lei-	.	.
*	*	*	*	*custos:G	*	*	*	*	*	*	*	*	*
!	!	!	!	!LO:LB:g=original	!	!	!	!	!	!LO:N:acc=#	!	!	!
1r	.	1GG	-son	1r	.	1r	.	1r	.	1bn	-son	.	.
=31-	=31-	=31-	=31-	=31-	=31-	=31-	=31-	=31-	=31-	=31-	=31-	=31-	=31-
*	*ij	*	*ij	*	*	*	*ij	*	*ij	*	*	*	*
0C	CHris-	0C	Chris-	0G	Chriſ-	0eny	Chris-	0g	Chris-	0cc	Chris-	0ryy	0ryy
=32-	=32-	=32-	=32-	=32-	=32-	=32-	=32-	=32-	=32-	=32-	=32-	=32-	=32-
1C	-te	1E	-te	1G	-te	1e	-te	1g	-te	1cc	-te	0ryy	0ryy
1FF	e-	1F	e-	1F	e-	1A	e-	1a	e-	1cc	e-	.	.
=33-	=33-	=33-	=33-	=33-	=33-	=33-	=33-	=33-	=33-	=33-	=33-	=33-	=33-
0C	-lei-	0C	-lei-	0G	-lei-	0c	-lei-	0g	-lei-	0cc	-lei-	0ryy	0ryy
=34-	=34-	=34-	=34-	=34-	=34-	=34-	=34-	=34-	=34-	=34-	=34-	=34-	=34-
00FF;;	-son	00F	-son	00F	-son.	00c	-son	00a;	-son	00cc;	-son	0ryy	0ryy
*	*Xij	*	*Xij	*	*	*	*Xij	*	*Xij	*	*Xij	*	*
=35-	=35-	=35-	=35-	=35-	=35-	=35-	=35-	=35-	=35-	=35-	=35-	=35-	=35-
.	.	.	.	.	.	.	.	.	.	.	.	0ryy	0ryy
!LO:LB:g=original	!	!LO:LB:g=original	!	!	!	!	!	!LO:LB:g=original	!	!LO:LB:g=original	!	!	!
=36-	=36-	=36-	=36-	=36-	=36-	=36-	=36-	=36-	=36-	=36-	=36-	=36-	=36-
*clefF4	*	*clefF4	*	*clefC4	*	*clefC3	*	*clefC1	*	*clefC1	*	*yyclefG2	*yyclefG2
*k[b-]	*	*k[b-]	*	*k[b-]	*	*k[b-]	*	*k[b-]	*	*k[b-]	*	*yyk[b-]	*yyk[b-]
*M2/1	*	*M2/1	*	*M2/1	*	*M2/1	*	*M2/1	*	*M2/1	*	*yyM2/1	*yyM2/1
*met(C|)	*color:red	*met(C|)	*color:red	*met(C|)	*color:red	*met(C|)	*	*met(C|)	*color:red	*met(C|)	*color:red	*yymet(C|)	*yymet(C|)
0r	.	2F\	Kÿ-	0r	.	0r	.	0r	.	2a\	Kÿ-	0ryy	0ryy
.	.	4C/	-ri-	.	.	.	.	.	.	4g/	-ri-	.	.
.	.	2D/	-e	.	.	.	.	.	.	2f/	-e	.	.
*	*	*	*color:auto	*	*	*	*color:red	*	*	*	*	*	*
.	.	4BB-/	e-	.	.	.	.	.	.	4f/	e-	.	.
.	.	2C/	-lei-	.	.	.	.	.	.	2e/	-lei-	.	.
=37-	=37-	=37-	=37-	=37-	=37-	=37-	=37-	=37-	=37-	=37-	=37-	=37-	=37-
2F\	Kÿ-	2FF/	-son,	2c\	Kÿ-	2f\	Kÿ-	2a\	Kÿ-	2f/	-son	0ryy	0ryy
4C/	-ri-	2r	.	4c\	-ri-	4e\	-ri-	4g/	-ri-	2r	.	.	.
2D/	-e	.	.	2A/	-e	2d\	-e	2f/	-e	.	.	.	.
.	.	1r	.	.	.	.	.	.	.	1r	.	.	.
*	*color:auto	*	*	*	*	*	*color:auto	*	*color:auto	*	*ij	*	*
*	*	*	*	*	*	*	*	*	*	*	*color:auto	*	*
4BB-/	e-	.	.	4B-\	e-	4d\	e-	4f/	e-	.	.	.	.
2C/	-lei-	.	.	2G/	-lei-	2c/	-lei-	2e/	-lei-	.	.	.	.
=38-	=38-	=38-	=38-	=38-	=38-	=38-	=38-	=38-	=38-	=38-	=38-	=38-	=38-
2FF/	-son,	2F\	Kÿ-	2A/	-son,	2c/	-son,	2f/	-son,	2cc\	Kÿ-	0ryy	0ryy
2r	.	4G\	-ri-	2r	.	2r	.	2r	.	4b-\	-ri-	.	.
.	.	2A\	-e	.	.	.	.	.	.	2a\	-e	.	.
1r	.	.	.	1r	.	1r	.	1r	.	.	.	.	.
.	.	4F\	e-	.	.	.	.	.	.	4a\	e-	.	.
.	.	2G\	-lei-	.	.	.	.	.	.	2g/	-lei-	.	.
=39-	=39-	=39-	=39-	=39-	=39-	=39-	=39-	=39-	=39-	=39-	=39-	=39-	=39-
*	*ij	*	*	*	*color:auto	*	*	*	*	*	*	*	*
*	*	*	*	*	*ij	*	*ij	*	*ij	*	*	*	*
2C/	Kÿ-	2C/	-son,	2G/	Kÿ-	2g\	Kÿ-	2cc\	Kÿ-	2g/	-son	0ryy	0ryy
4D/	-ri-	2r	.	4d\	-ri-	4f\	-ri-	4a\	-ri-	2r	.	.	.
2E-X\	-e	.	.	2B-\	-e	2e-X\	-e	2g\	-e	.	.	.	.
.	.	1r	.	.	.	.	.	.	.	1r	.	.	.
4C/	e-	.	.	4c\	e-	4e-\	e-	4g\	e-	.	.	.	.
*	*	*	*ij	*	*	*custos:d	*	*	*	*	*Xij	*	*
!	!	!	!	!	!	!LO:LB:g=original	!	!	!	!	!	!	!
2D/	-lei-	.	.	2A/	-lei-	2d\	-lei-	2f#X/	-lei-	.	.	.	.
=40-	=40-	=40-	=40-	=40-	=40-	=40-	=40-	=40-	=40-	=40-	=40-	=40-	=40-
2GG/	-son	2G\	Kÿ-	2G/	-son	2d\	-son	2g/	-son	2dd\	Kÿ-	0ryy	0ryy
2r	.	4A\	-ri-	2r	.	2r	.	2r	.	4cc\	-ri-	.	.
.	.	2B-\	-e	.	.	.	.	.	.	2b-\	-e	.	.
*	*Xij	*	*	*	*Xij	*	*Xij	*	*Xij	*	*	*	*
1r	.	.	.	1r	.	1r	.	1r	.	.	.	.	.
.	.	4E-X\	e-	.	.	.	.	.	.	4b-\	e-	.	.
.	.	2F\	-lei-	.	.	.	.	.	.	2a\	-lei-	.	.
*	*	*	*	*custos:d	*	*	*	*	*	*	*	*	*
!	!	!	!	!LO:LB:g=original	!	!	!	!	!	!	!	!	!
=41-	=41-	=41-	=41-	=41-	=41-	=41-	=41-	=41-	=41-	=41-	=41-	=41-	=41-
2B-\	Kÿ-	2BB-/	-son	2d\	Kÿ-	2f\	Kÿ-	2dd\	Kÿ-	2b-\	-son	0ryy	0ryy
4G\	-ri-	2r	.	4d\	-ri-	4g\	-ri-	4b-\	-ri-	2r	.	.	.
2A\	-e	.	.	2c\	-e	2eny\	-e	2a\	-e	.	.	.	.
*	*	*custos:C	*Xij	*	*	*	*	*	*	*	*ij	*	*
!	!	!LO:LB:g=original	!	!	!	!	!	!	!	!	!	!	!
.	.	1r	.	.	.	.	.	.	.	1r	.	.	.
4F\	e-	.	.	4c\	e-	4f\	e-	4a\	e-	.	.	.	.
2G\	-lei-	.	.	2B-\	-lei-	2d\	-lei-	2g/	-lei-	.	.	.	.
=42-	=42-	=42-	=42-	=42-	=42-	=42-	=42-	=42-	=42-	=42-	=42-	=42-	=42-
2C/	-son,	2C/	Kÿ-	2c\	-son,	2e\	-son,	2g/	-son,	2g/	Kÿ-	0ryy	0ryy
2r	.	4AA/	-ri-	2r	.	2r	.	2r	.	4a\	-ri-	.	.
.	.	2BB-/	-e	.	.	.	.	.	.	2f/	-e	.	.
1r	.	.	.	1r	.	1r	.	1r	.	.	.	.	.
.	.	4GG/	e-	.	.	.	.	.	.	4b-\	e-	.	.
*	*	*	*	*	*	*	*	*	*	*custos:a	*	*	*
!	!	!	!	!	!	!	!	!	!	!LO:LB:g=original	!	!	!
.	.	2D/	-lei-	.	.	.	.	.	.	2a\	-lei-	.	.
*	*	*	*	*	*	*	*	*custos:g	*	*	*	*	*
!	!	!	!	!	!	!	!	!LO:PB:g=original	!	!	!	!	!
=43-	=43-	=43-	=43-	=43-	=43-	=43-	=43-	=43-	=43-	=43-	=43-	=43-	=43-
*	*ij	*	*	*	*ij	*	*ij	*	*ij	*	*	*	*
!	!	!	!	!LO:N:acc=#	!	!	!	!	!	!	!	!	!
2G\	Kÿ-	2GG/	-son	2Bn\	Kÿ-	2d\	Kÿ-	2g/	Kÿ-	2g/	-son	0ryy	0ryy
4Eny\	-ri-	2r	.	4c\	-ri-	4e#X\	-ri-	4g/	-ri-	2r	.	.	.
2F\	-e	.	.	2A/	-e	2c/	-e	2a\	-e	.	.	.	.
.	.	0r	.	.	.	.	.	.	.	1r	.	.	.
4C/	e-	.	.	4G/	e-	4e#\	e-	4cc\	e-	.	.	.	.
*	*	*	*	*	*	*	*	*	*	*	*Xij	*	*
!	!	!	!	!	!	!	!	!LO:N:acc=#	!	!	!	!	!
2G\	-lei-	.	.	2G/	-lei-	2d\	-lei-	2bn\	-lei-	.	.	.	.
*custos:C	*	*	*	*	*	*	*	*	*	*	*	*	*
!LO:LB:g=original	!	!	!	!	!	!	!	!	!	!	!	!	!
=44-	=44-	=44-	=44-	=44-	=44-	=44-	=44-	=44-	=44-	=44-	=44-	=44-	=44-
1C	-son	.	.	1G,<	-son	1eny	-son	1cc	-son	1r	.	0ryy	0ryy
*	*Xij	*	*ij	*	*Xij	*	*Xij	*	*Xij	*	*	*	*
2C/	Kÿ-	2C/	Kÿ-	2c\	Kÿ-	2e\	Kÿ-	2g/	Kÿ-	2cc\	Kÿ-	.	.
4F\	-ri-	4AA/	-ri-	2F/	-ri-	4f\	-ri-	4a\	-ri-	4cc\	-ri-	.	.
2BB-/	-e	2BB-/	-e	.	.	2f\	-e	2dd\	-e	2b-\	-e	.	.
=45-	=45-	=45-	=45-	=45-	=45-	=45-	=45-	=45-	=45-	=45-	=45-	=45-	=45-
.	.	.	.	4B-y\	-e	.	.	.	.	.	.	0ryy	0ryy
4F\	e-	4FF/	e-	4c\	e-	4f\	e-	4cc\	e-	4a\	e-	.	.
2C,/	-lei-	2C/	-lei-	2c\	-lei-	2e\	-lei-	2cc\	-lei-	2g/	-lei-	.	.
2F\	-son	2FF,</	-son	2A/	-son,	2f\	-son	2cc\	-son	2a\	-son	.	.
*	*ij	*	*Xij	*	*ij	*	*ij	*	*ij	*	*ij	*	*
2C/	Kÿ-	2C/	Kÿ-	2G/	Kÿ-	2g\	Kÿ-	4r	.	2cc\	Kÿ-	.	.
.	.	.	.	.	.	.	.	4g/	Kÿ-	.	.	.	.
=46-	=46-	=46-	=46-	=46-	=46-	=46-	=46-	=46-	=46-	=46-	=46-	=46-	=46-
4AA/	-ri-	4F\	-rie	4C/	-ri-	4c/	-ri-	4a\	-ri-	4cc\	-ri-	0ryy	0ryy
2BB-/	-e	2BB-/	e	2F/	-e	2B-/	-e	2fny/	-e	2dd\	-e	.	.
4FF/	e-	4F\	e-	4F/	e-	4A/	e-	4a\	e-	4cc\	e-	.	.
1C	-lei-	1C	-lei-	1G	-lei-	1c	-lei-	1g	-lei-	1cc	-lei-	.	.
=47-	=47-	=47-	=47-	=47-	=47-	=47-	=47-	=47-	=47-	=47-	=47-	=47-	=47-
00FF;	-son	00F;	-son.	00F;	-son	00c;/	-son	00g;	-son	00cc;	-son	0ryy	0ryy
=48-	=48-	=48-	=48-	=48-	=48-	=48-	=48-	=48-	=48-	=48-	=48-	=48-	=48-
.	.	.	.	.	.	.	.	.	.	.	.	0ryy	0ryy
==	==	==	==	==	==	==	==	==	==	==	==	==	==
*-	*-	*-	*-	*-	*-	*-	*-	*-	*-	*-	*-	*-	*-
!!!system-decoration: [(s1,s2,s3,s4,s5,s6,s7,s8)]
!!!ENC: Andrzej Gręziak
!!!END: 2022-06-17
!!!ENC: Natalia Wrzos
!!!END: 2022-08-03
